X:1
T:Title
%%score { ( 1 3 5 ) | ( 2 4 6 ) }
L:1/8
M:4/4
K:A
V:1 treble nm="Grand Piano"
V:3 treble 
V:5 treble 
V:2 bass 
V:4 bass 
V:6 bass 
V:1
 z4 z2[Q:1/4=100] [Ec]>[DB] | [CA]2 [DF]2 [CE]2 C[CA] | G2 G2 G2 FE | [Gd]2 d2 d2 BE | %4
 c2 c2 c2 [CA][DB] | [Ec]2 [Ec]2 [Ec]2 [Fd][Ec] |[M:9/8] z3 z3 z .[Ec]2 |[M:4/4] A2 GA c2 B2 | %8
[M:3/4] [CA]6 |[M:11/32] [Ec]/4-[Ec]/4-[Ec]/4-[Ec]/4-[Ec]/4-[Ec]/4-[Ec]/-<[Ec]/ z/4 | %10
[M:4/4] z4 (5:4:4A2- A/ GA3/2 | B4- B3/2-B/4 z/4 z2 | (5:4:4[^DB]2- [DB]/ [DF][FA]3/2 z4 | %13
[M:7/8] z2 C3/2-C/4 z/4 =D3 |[M:1/4] (3:2:2[Ge]2 [Gd] |[M:4/4] (3:2:2c3 e3 z4 | %16
[M:9/8] B2- B/4 z/4 z/ z d2- d-d/4 z/4 z/ z |[M:4/4] z4 [Ac]2- [Ac]/4 z/4 z/ z |[M:3/4] z6 |] %19
V:2
 z4 z2 [A,,A,]>[A,,A,] | [A,,A,]2 [A,,A,]2 [A,,A,]2 [A,,A,][A,,A,] | %2
 [D,B,D]2 [E,B,D]2 [E,B,D]2 [E,A,D][E,G,D] | [E,B,]2 [F,A,F]2 [G,B,E]2 [E,G,E][E,G,] | %4
 [A,E]2 [A,E]2 [A,E]2 [A,,A,][A,,A,] | [A,,A,]2 [A,,A,]2 A,2 A,A, | %6
[M:9/8] [D,A,]2 [D,A,]- [D,A,] [D,A,]2- [D,A,] z D | %7
[M:4/4] [E,CE]2 [E,B,E][E,CE] [E,A,E]2 [E,G,D]2 |[M:3/4] [A,,A,]6 | %9
[M:11/32] A,/4-A,/4-A,/4-A,/4-A,/4-A,/4-A,/-<A,/ z/4 | %10
[M:4/4] z4 (5:4:4[E,A,C]2- [E,A,C]/ [E,B,D][E,A,C]3/2 | %11
 [E,G,E]2- [E,G,E]/4 z/4 z/ z (3:2:2[G,B,]3 [E,G,E]3 | z4 B,2- B,/4 z/4 z/ z | %13
[M:7/8] [G,B,]2- [G,B,]/4 z/4 z/ z z z2 |[M:1/4] (3:2:2[E,B,]2 [E,B,] | %15
[M:4/4] (3:2:2[A,E]3 [A,CE]3 z4 |[M:9/8] .[D,A,]3 z3 z2 [D,B,] | %17
[M:4/4] (5:4:4[E,CE]2- [E,CE]/ [E,B,E][E,CE]3/2 E,2 z2 |[M:3/4] A,,6 |] %19
V:3
 x8 | x8 | x8 | x8 | x8 | x8 |[M:9/8] [FB]2 [DF]- [DF] [Fd]2- [Fd]F-[FB] |[M:4/4] x8 |[M:3/4] x6 | %9
[M:11/32] z/4 z/4 z/4 z/4 z/4 z/4 z/ [DB]3/4 |[M:4/4] (3:2:2[CA]3 A3 z4 | %11
 z2 ^D3/2-D/4 z/4 (3:2:2E3 B3 | z4 [EG]2- [EG]/4 z/4 z/ z |[M:7/8] E-E-E- E- E2- E3/4 z/4 | %14
[M:1/4] x2 |[M:4/4] z4 (5:4:4e2- e/ dc3/2 |[M:9/8] F2 [Fd]- [Fd] F2- Fc-[B-c]/<B/ | %17
[M:4/4] z4 z2 [DB]2- |[M:3/4] [DB]3/4 z/4 z z2 z2 |] %19
V:4
 x8 | x8 | x8 | x8 | x8 | x8 |[M:9/8] z3 z3 z D,2 |[M:4/4] x8 |[M:3/4] x6 | %9
[M:11/32] A,,/4-A,,/4-A,,/4-A,,/4-A,,/-<A,,/[A,,E,]3/4 |[M:4/4] (3:2:2[A,,E,]3 [C,E,C]3 z4 | %11
 z2 [F,A,]2- [F,A,]/4 z/4 z/ z z2 | z4 z2 [B,,A,]2- |[M:7/8] [B,,A,]3/4 z/4 z A,2- A,/4 z/4 z/ z2 | %14
[M:1/4] x2 |[M:4/4] z4 (5:4:4[A,CE]2- [A,CE]/ [A,B,E][A,E]3/2 | %16
[M:9/8] z2 [D,A,]- [D,A,]-[D,A,]/4 z/4 z/ z z [C,^A,]-[C,A,]/4 z/4 z/ |[M:4/4] z4 z2 E,2- | %18
[M:3/4] E,3/4 z/4 z z2 z2 |] %19
V:5
 x8 | x8 | x8 | x8 | x8 | x8 |[M:9/8] x9 |[M:4/4] x8 |[M:3/4] x6 |[M:11/32] x11/4 |[M:4/4] x8 | %11
 x8 | z4 z2 [^DF]2- |[M:7/8] [DF]3/4 z/4 z z z z z2 |[M:1/4] x2 |[M:4/4] x8 |[M:9/8] z3 z3 z F2 | %17
[M:4/4] (5:4:4A2- A/ GA3/2 E2 E2 |[M:3/4] [CEA]6 |] %19
V:6
 x8 | x8 | x8 | x8 | x8 | x8 |[M:9/8] x9 |[M:4/4] x8 |[M:3/4] x6 |[M:11/32] x11/4 |[M:4/4] x8 | %11
 x8 | (5:4:4[B,,F,]2- [B,,F,]/ [B,,B,][B,,B,]3/2 B,,2 z2 |[M:7/8] E,- E,3- [E,B,]2- [E,-B,]/>E,/ | %14
[M:1/4] x2 |[M:4/4] x8 |[M:9/8] z3 z [B,,B,]2- [B,,B,]-[B,,B,]/4 z/4 z/ z |[M:4/4] x8 | %18
[M:3/4] x6 |] %19

